!!!COM: Palestrina, Giovanni Perluigi da
!!!OPR: Missa Quem dicunt homines
!!!OMD: Credo
!!!OTL: Crucifixus
**kern	**kern	**kern
*Itenor	*Icalto	*Icant
!Tenor	!Altus	!Cantus
*clefGv2	*clefG2	*clefG2
*k[]	*k[]	*k[]
*C:ion	*C:ion	*C:ion
*M4/2	*M4/2	*M4/2
=92	=92	=92
1.c	1r	0r
.	1g	.
2c	.	.
=93	=93	=93
2B	2g	0r
2A	2f	.
2.c	2e	.
.	[2g	.
8B	.	.
8A	.	.
=94	=94	=94
2G	2g]	1r
2A	4f	.
.	4e	.
2B	2d	2r
2c	2e	[2cc
=95	=95	=95
1A	2f	2cc]
.	2.e	2cc
2G	.	2b
.	4d	.
4F	[2f	2a
4G	.	.
=96	=96	=96
4A	2f]	2.cc
4B	.	.
1c	4e	.
.	4d	8b
.	.	8a
.	2e	2g
2A	[2f	2a
=97	=97	=97
2G	4f]	2b
.	4e	.
2A	1e	2cc
1F	.	1a
.	2d	.
=98	=98	=98
2C	1e	2.g
2c	.	.
.	.	4f
2c	2r	4e
.	.	4d
2c	2g	2e
=99	=99	=99
2G	2g	1d
1B-	2g	.
.	2d	1r
4A	[2f	.
4G	.	.
=100	=100	=100
2A	2f]	1r
4G	4e	.
4F	4d	.
2E	[1e	1g
4C	.	.
4D	.	.
=101	=101	=101
4E	2e]	2g
4F	.	.
1G	4d	2g
.	4c	.
.	2B	2d
4F	[2c	[2f
4E	.	.
=102	=102	=102
1D	2c]	2f]
.	2B	4e
.	.	4d
2C	1c	2.e
[2c	.	.
.	.	4c
=103	=103	=103
2c]	1G	1d
2B	.	.
2A	1r	[1e
2G	.	.
=104	=104	=104
2c	2r	1e]
2c	1c	.
1G	.	1d
.	2B	.
=105	=105	=105
2F	2A	2r
2E	2G	1g
[1A	[1c	.
.	.	2f
=106	=106	=106
2A]	2c]	2e
2F	2A	2d
2.E	2B	2g
.	[2c	2g
4F	.	.
=107	=107	=107
1G	2c]	2.d
.	2B	.
.	.	4e
2D	2A	2f#
[2E	2G	2g
=108	=108	=108
4E]	2c	2.e
4C	.	.
2.c	2c	.
.	.	8d
.	.	8c
.	1G	1d
8B	.	.
8A	.	.
2B	.	.
=109	=109	=109
[0c	2r	1e
.	2c	.
.	2.g	2r
.	.	2c
.	4f	.
=110	=110	=110
1c]	1e	2.g
.	.	4a
1r	2d	1b
.	2g	.
=111	=111	=111
0r	2f	2a
.	2e	2.cc
.	4c	.
.	4d	4b
.	4e	4cc
.	4f	4a
=112	=112	=112
1r	2g	2b
.	2.e	2cc
2r	.	1b
.	4d	.
2G	[2g	.
=113	=113	=113
2c	2g]	1a
2d	2f#	.
1e	2g	2g
.	2g	2cc
=114	=114	=114
2d	2f	2b
2.c	2.e	2a
.	.	2.g
4B	4d	.
4c	4e	.
4A	4c	4f#
=115	=115	=115
2B	2d	2g
2c	2e	2.a
1B	1d	.
.	.	4g
.	.	[2g
=116	=116	=116
1A	1c	2g]
.	.	2f#
4G	2r	1g
4F	.	.
4E	2G	.
4D	.	.
=117	=117	=117
2E	2.c	2r
2F	.	2c
.	4d	.
4C	[1e	2.g
4D	.	.
4E	.	.
4F	.	4a
=118	=118	=118
1G	2e]	1b
.	2d	.
1r	2.f	2a
.	.	[2cc
.	4e	.
=119	=119	=119
0r	4f	4cc]
.	4d	4b
.	4e	4cc
.	4f	4a
.	2g	2b
.	2e	[2cc
=120	=120	=120
1G	1d	2cc]
.	.	2b
2.c	2.e	2a
.	.	4g
4d	4d	4f
=121	=121	=121
1e	4c	0g
.	4B	.
.	2c	.
2d	2B	.
[2c	[2e	.
=122	=122	=122
4c]	4e]	2r
4B	4d	.
4c	4e	2c
4A	4c	.
2B	2d	2g
2c	[2g	2g
=123	=123	=123
1A	2g]	2a
.	2f	1cc
[1G	2e	.
.	4d	4b
.	4c	4a
=124	=124	=124
1G]	2d	4b
.	.	4a
.	2B	4g
.	.	4f
2r	1c	4e
.	.	4d
2C	.	2e
=125	=125	=125
2G	1B	2.d
2G	.	.
.	.	4e
2A	1r	2f
[2c	.	2e
=126	=126	=126
2c]	1G	2d
4B	.	2dd
4A	.	.
4B	2d	4dd
4A	.	4cc
4G	2d	4b
4F	.	4a
=127	=127	=127
4E	2e	1g
4D	.	.
2E	1g	.
[1D	.	[1a
.	4f	.
.	4e	.
=128	=128	=128
1D]	4f	1a]
.	4e	.
.	4d	.
.	4c	.
1G	4B	2r
.	4A	.
.	2B	2g
=129	=129	=129
2r	1A	2f
1c	.	2e
.	2G	2.g
2B	2g	.
.	.	4g
=130	=130	=130
2A	2f	2a
1c	2e	4g
.	.	4f
.	2.g	2e
2B	.	2d
.	4g	.
=131	=131	=131
2.A	1c	2e
.	.	2.a
4G	.	.
4F	[1c	.
4E	.	4g
[2A	.	4f
.	.	4e
=132	=132	=132
2A]	2c]	4f
.	.	4e
2G	2B	1e
1F	2.A	.
.	.	2d
.	4B	.
=133	=133	=133
1E	2c	[0e
.	2.B	.
2r	.	.
.	4A	.
[2c	[2A	.
=134	=134	=134
2c]	2A]	0e]
2B	2G	.
2A	4c	.
.	4d	.
[2c	4e	.
.	4c	.
=135	=135	=135
2c]	1d	1r
2B	.	.
1A	1c	2r
.	.	[2cc
=136	=136	=136
1G	2r	2cc]
.	1g	2b
1D	.	1a
.	2f	.
=137	=137	=137
2r	2e	2cc
2E	1g	2b
2C	.	1a
2D	2f	.
=138	=138	=138
1E	2.e	2.g
.	4d	4f
2r	4c	4e
.	4B	4d
2E	[2e	[2g
=139	=139	=139
2C	2e]	2g]
2D	2d	2f
2E	1c	1e
2F	.	.
=140	=140	=140
0G	0B	0d
*-	*-	*-
!!!CDT: 1525/^1526/-1594/2/2
!!!OCY: Italia
!!!AGN: Mass (Parody)
!!!AST: renaissance, vocal
!!!ASW: Motet 1532 (Richafort)
!!!PWK: Masses, Book 8
!!!RNB: Cadence finals: G
!!!YOR: Le Opere Complete, v. 24, p. 1
!!!YOO: Rome, Italy: Fratelli Scalera
!!!END: 1992//
!!!EED: John Miller
!!!YEC: Copyright 2000, John Miller
!!!YEN: United States of America
!!!YEM: Rights to all derivative electronic formats reserved.
!!!YEM: Refer to licensing agreement for further details.
!!!YEM: This file must be accompanied by the licensing agreement.
!!!YEM: A copy of the licensing agreement may be found at http://www.music-cog.ohio-state.edu/HumdrumDatabases/Palestrina/license.txt
!!!EMD: converted to Humdrum by Bret Aarden
